X:1
T:Grabesruhe, 87.87.77
T:Grabesruhe, 87.87.77
T:Robert Rau, 1864
T:Public Domain Courtesy of the Cyber Hymnal™
C:Robert Rau, 1864
Z:Public Domain
Z:Courtesy of the Cyber Hymnal™
%%score ( 1 2 ) ( 3 4 )
L:1/8
Q:1/4=88
M:6/8
K:A
V:1 treble 
V:2 treble 
V:3 bass 
V:4 bass 
V:1
 [CE]2 (F/G/) [EA]2 E | [Ec]2 [EA] [DB]2 [CA] | [CA]2 [EG] [DF]2 [CE] | (GF)[DE] E3 | %4
 [CE]2 (F/G/) [EA]2 E | [Ec]2 [EA] [DB]2 [CA] | [^DF]2 (G/A/) [EB]2 [^Ec] | [F^d]2 [Ec] [^DB]2 z | %8
 .[^DF]2 .[DF] .[EB]2 .[EB] | [^DB]2 [DA] [EG]3 x | (GA)[EB] [EA]2 [DF] | (EF)[DG] [CA]2 z | %12
 [CA]2 [^DA] [EA]2 [FA] | E2 [DE] [CE]2 z |] %14
V:2
 x2 ^D x3/2 E x/ | x6 | x6 | D2 (D2 C) x | x2 ^D x3/2 E x/ | x6 | x2 ^D x3 | x6 | x6 | x7 | E2 x4 | %11
 D2 x4 | x6 | (EC) x4 |] %14
V:3
 [A,,A,]2 [A,,=C] [A,,^C]2 [A,,C] | [A,,A,]2 [C,A,] [E,G,]2 [A,,E,] | [A,,E,]2 [C,A,] [D,A,]2 A, | %3
 (B,A,)[E,G,] (F,G,A,) | [A,,A,]2 [A,,=C] [A,,^C]2 [A,,C] | [A,,A,]2 [C,A,] [E,G,]2 [A,,E,] | %6
 [A,B,]2 [A,B,] [G,B,]2 [=G,B,] | [F,B,]2 [F,,^A,] [B,,B,]2 z | %8
 .[A,B,]2 .[A,B,] .[G,B,]2 .[=G,B,] | [F,B,]2 [F,B,] B,3 ^D, | (B,A,)[D,G,] [C,A,]2 [D,A,] | %11
 (G,A,)[E,,B,] [A,,A,]2 z | [F,A,]2 [=F,=C] [E,^C]2 [^D,^B,] | (CA,)[E,,G,] [A,,A,]2 z |] %14
V:4
 x6 | x6 | x5 A, | E,2 A,,3 x | x6 | x6 | x6 | x6 | x6 | x3 E,2 x2 | D,2 x4 | E,2 x4 | x6 | %13
 E,2 x4 |] %14

